X: 10151
M: C
L: 1/8
K: A
f !segno!|:\
eAcA eAcA | =G/G/G gB d2f2 |\
eAcA eAcA | A/A/A ac e2f2 :|\
ef/g/ ae fdec | B/B/B =gB d2f2 |
ef/g/ ae fdec | e/e/e ac e2f2 |\
ef/g/ ae fdec | B=gdB GABA |\


